X: 25835
T: Master Mason's
R: jig
M: 6/8
K: Amajor
|:~A3 Aca|~f3 fea|fee ecA|BcB BAF|
~E3 EFA|BAB cAE|FAc fec|BAB cAE:|
|:f3 fea|~f3 fea|fee ecA|BcB BAF|
~E3 EFA|BAB cAE|FAc fec|BAB cAE:|

